vendor/shopware/storefront/Resources/app/storefront/dist/assets/icon/default/external.svg

<svg xmlns="http://www.w3.org/2000/svg" width="24" height="24" viewBox="0 0 24 24">
  <path fill="#758CA3" fill-rule="evenodd" d="M22,3.41421356 L9.70710678,15.7071068 C9.31658249,16.0976311 8.68341751,16.0976311 8.29289322,15.7071068 C7.90236893,15.3165825 7.90236893,14.6834175 8.29289322,14.2928932 L20.5857864,2 L18,2 C17.4477153,2 17,1.55228475 17,1 C17,0.44771525 17.4477153,-1.11022302e-16 18,-1.11022302e-16 L23,-1.11022302e-16 C23.5522847,-1.11022302e-16 24,0.44771525 24,1 L24,6 C24,6.55228475 23.5522847,7 23,7 C22.4477153,7 22,6.55228475 22,6 L22,3.41421356 Z M12.9837526,3 C13.5360373,3 13.9837526,3.44771525 13.9837526,4 C13.9837526,4.55228475 13.5360373,5 12.9837526,5 L3,5 C2.44771525,5 2,5.44771525 2,6 L2,21.0000292 C2,21.5523139 2.44771525,22.0000292 3,22.0000292 L18.0011116,22.0000292 C18.5533964,22.0000292 19.0011116,21.5523139 19.0011078,20.9972586 L18.9734171,11.0027706 C18.971887,10.450488 19.4183601,10.001534 19.9706427,10.0000038 C20.5229253,9.99847369 20.9718793,10.4449468 20.9734095,10.9972294 L21.0011116,21.0000292 C21.0011116,22.6568834 19.6579659,24.0000292 18.0011116,24.0000292 L3,24.0000292 C1.34314575,24.0000292 7.77156117e-16,22.6568834 -8.8817842e-16,21.0000292 L-8.8817842e-16,6 C-1.05471187e-15,4.34314575 1.34314575,3 3,3 L12.9837526,3 Z"/>
</svg>

<svg xmlns="http://www.w3.org/2000/svg" width="24" height="24" viewBox="0 0 24 24"><path fill="#758CA3" fill-rule="evenodd" d="M22 3.4142 9.7071 15.7072c-.3905.3904-1.0237.3904-1.4142 0-.3905-.3906-.3905-1.0238 0-1.4143L20.5858 2H18c-.5523 0-1-.4477-1-1s.4477-1 1-1h5c.5523 0 1 .4477 1 1v5c0 .5523-.4477 1-1 1s-1-.4477-1-1V3.4142zM12.9838 3c.5522 0 1 .4477 1 1s-.4478 1-1 1H3c-.5523 0-1 .4477-1 1v15c0 .5523.4477 1 1 1h15.0011c.5523 0 1-.4477 1-1.0027l-.0277-9.9945c-.0015-.5523.445-1.0013.9972-1.0028.5523-.0015 1.0013.445 1.0028.9972L21.0011 21c0 1.6569-1.3431 3-3 3H3c-1.6569 0-3-1.3431-3-3V6c0-1.6569 1.3431-3 3-3h9.9838z"/></svg>
